svg/logo/bluesky_social_fill.svg

<svg xmlns="http://www.w3.org/2000/svg" width="24" height="24" viewBox="0 0 24 24"><g fill="none"><path d="M24,0 L24,24 L0,24 L0,0 L24,0 Z M12.5935,23.2578 L12.5819,23.2595 L12.5109,23.295 L12.4919,23.2987 L12.4767,23.295 L12.4057,23.2595 C12.3958,23.2564 12.387,23.259 12.3821,23.2649 L12.378,23.2758 L12.3609,23.7031 L12.3659,23.7235 L12.3769,23.7357 L12.4805,23.8097 L12.4953,23.8136 L12.5071,23.8097 L12.6107,23.7357 L12.6233,23.7197 L12.6267,23.7031 L12.6096,23.2758 C12.6076,23.2657 12.601,23.2593 12.5935,23.2578 Z M12.8584,23.1453 L12.8445,23.1473 L12.6598,23.2397 L12.6499,23.2499 L12.6472,23.2611 L12.6651,23.6906 L12.6699,23.7034 L12.6784,23.7105 L12.8793,23.8032 C12.8914,23.8069 12.9022,23.803 12.9078,23.7952 L12.9118,23.7812 L12.8777,23.1665 C12.8753,23.1546 12.8674,23.147 12.8584,23.1453 Z M12.143,23.1473 C12.1332,23.1424 12.1222,23.1453 12.1156,23.1526 L12.1099,23.1665 L12.0758,23.7812 C12.0751,23.7927 12.0828,23.8019 12.0926,23.8046 L12.1083,23.8032 L12.3092,23.7105 L12.3186,23.7024 L12.3225,23.6906 L12.3404,23.2611 L12.3372,23.2485 L12.3278,23.2397 L12.143,23.1473 Z"/><path fill="#09244B" d="M5.89212,2.92957 C4.11267,1.87071 2.07895,3.37561 2.26117,5.28891 L2.65975,9.47397 C2.83645,11.3293 4.50008,13.4999 6.85508,13.2968 C4.50008,13.9999 3.13163,15.8652 4.8791,18.1449 C5.16479,18.5176 5.47595,18.89 5.79297,19.207 C6.11,19.5241 6.48236,19.8352 6.85508,20.1209 C8.73543,21.5622 11.2302,19.4717 11.9102,17.4318 L11.9999,17.1627 L12.0896,17.4318 C12.7696,19.4717 15.2644,21.5622 17.1448,20.1209 C17.5175,19.8352 17.8898,19.5241 18.2069,19.207 C18.5239,18.89 18.835,18.5176 19.1207,18.1449 C20.8682,15.8652 19.4998,13.9999 17.1448,13.2968 C19.4998,13.4999 21.1634,11.3293 21.3401,9.47397 L21.7387,5.28891 C21.9209,3.37561 19.8872,1.87071 18.1077,2.92957 C15.2002,4.65969 13.4845,7.39198 11.9999,9.90058 C10.5153,7.39198 8.79965,4.65969 5.89212,2.92957 Z"/></g></svg>

<svg xmlns="http://www.w3.org/2000/svg" width="24" height="24"><g fill="none"><path d="M24 0v24H0V0zM12.594 23.258l-.012.002-.071.035-.02.004-.014-.004-.071-.036c-.01-.003-.019 0-.024.006l-.004.01-.017.428.005.02.01.013.104.074.015.004.012-.004.104-.074.012-.016.004-.017-.017-.427c-.002-.01-.009-.017-.016-.018m.264-.113-.014.002-.184.093-.01.01-.003.011.018.43.005.012.008.008.201.092c.012.004.023 0 .029-.008l.004-.014-.034-.614c-.003-.012-.01-.02-.02-.022m-.715.002a.023.023 0 0 0-.027.006l-.006.014-.034.614c0 .012.007.02.017.024l.015-.002.201-.093.01-.008.003-.011.018-.43-.003-.012-.01-.01z"/><path fill="#09244B" d="M5.892 2.93c-1.78-1.06-3.813.446-3.63 2.359l.398 4.185c.176 1.855 1.84 4.026 4.195 3.823C4.5 14 3.132 15.865 4.88 18.145c.286.373.597.745.914 1.062.317.317.69.628 1.062.914 1.88 1.441 4.375-.65 5.055-2.69l.09-.268.09.269c.68 2.04 3.174 4.13 5.055 2.689.372-.286.745-.597 1.062-.914.317-.317.628-.69.914-1.062 1.747-2.28.379-4.145-1.976-4.848 2.355.203 4.018-1.968 4.195-3.823l.399-4.185c.182-1.913-1.852-3.418-3.631-2.36C15.2 4.66 13.485 7.393 12 9.902 10.515 7.392 8.8 4.66 5.892 2.93"/></g></svg>
